!!!!SEGMENT: pl-wtm--r-1461--021_stefani-jozef--wszechstronne-cwiczenia-glosowe-gamma-chromatyczna.krn
!!!cenid: 18xx:2198
!!!COM: Stefani, Józef
!!!COM-rismID: pe30024097
!!!CDT: 1800/04/16-1876/03/19
!!!CNT: Polish
!!!GTL: Wszechstronne ćwiczenia głosowe
!!!OTL: Gamma chromatyczna
!!!PDT:
!!!AGN: Secular
!!!SMS-siglum: PL-Wtm
!!!SMS-shelfmark: R 1461
!!!SMS-shelfwork: 021 G
!!!SMS-variant:
!!!SMS-altvar:
!!!NIFC-rismSourceID: 1001120710
!!!NIFC-islandoraID: pl-wtm:25869
!!!URL-pdf-islandora: https://repozytorium.nifc.pl/islandora/object/pl-wtm%3A25869/datastream/PDF/view
!!!URL-scan: https://polish.musicsources.pl/pl/lokalizacje/galeria/rekopisy/6276 @EN{Scan on Polish Music Sources Website} @PL{Skany w portalu Dziedzictwo Muzyki Polskiej w otwartym dostępie}
!!!ONB-nifc: UWAGA: skan 0018, s. 33 – 0019, s. 34
!!!AIN: 2 forte 1 tenor
!!!key:
**kern	**kern	**kern	**dynam
*part3	*part2	*part1	*part1
*staff3	*staff2	*staff1	*
*Iforte	*Iforte	*Itenor	*
*I"Fortepian	*I"Fortepian	*I"Sopran/Tenor	*
*clefF4	*clefG2	*clefG2	*
*k[]	*k[]	*k[]	*
*F:	*F:	*F:	*
*M2/2	*M2/2	*M2/2	*
*met(c|)	*met(c|)	*met(c|)	*
=1	=1	=1	=1
*all\right	*all\right	*all\right	*
*2\right	*	*	*
2C\	2c 2G< 2E</	2c/	.
!	!	!LO:TX:t=P:problem=diminuendolike accent	!
2AA\	2c#X 2G</	2c#X^>/	.
=2	=2	=2	=2
2D\	2d 2A< 2F</	2d/	.
!	!	!LO:TX:t=P:problem=diminuendolike accent	!
2BB\	2d#X 2A</	2d#X^>/	.
=3	=3	=3	=3
*	*^	*	*
2C\	2e/	4G</	2e/	.
.	.	4B-X</	.	.
!	!	!	!LO:TX:t=P:problem=diminuendolike accent	!
2FF\	2f 2A</	2ryy	2f^>/	.
*	*v	*v	*	*
=4	=4	=4	=4
2D\	2f#X 2c/	2f#X/	.
!	!	!LO:TX:t=P:problem=diminuendolike accent	!
2GG/	2g 2Bn/	2g^>/	.
=5	=5	=5	=5
2E\	2g#X 2d/	2g#X/	.
!	!	!LO:TX:t=P:problem=diminuendolike accent	!
2AA/	2a 2c/	2a^>/	.
!!LO:LB:g=original
=6	=6	=6	=6
*	*^	*	*
2F#X\	2a#X 2e/	2ryy	2a#X/	.
!	!	!	!LO:TX:t=P:problem=diminuendolike accent	!
2Gn\	2b/	4d\	2b^>/	.
.	.	4fn\	.	.
*	*v	*v	*	*
=7	=7	=7	=7
*	*	*2\right	*
2c\	2cc 2e/	2cc\	.
!	!	!LO:TX:t=P:problem=diminuendolike accent	!
2A\	2cc#X 2g/	2cc#X^\	.
=8	=8	=8	=8
2d\	2dd 2f/	2dd\	.
!	!	!LO:TX:t=P:problem=diminuendolike accent	!
2B\	2dd#X 2a/	2dd#X^\	.
=9	=9	=9	=9
*	*^	*	*
2c\	2ee/	4g\	2ee\	.
.	.	4b-X\	.	.
*	*	*2\right	*	*
!	!	!	!LO:TX:t=P:problem=diminuendolike accent	!
2F\	2ff 2a/	2a\	2ff^\	.
*	*v	*v	*	*
=10	=10	=10	=10
2d\	2ff#X 2cc\	2ff#X\	.
!	!	!LO:TX:t=P:problem=diminuendolike accent	!
2G\	2gg 2bn\	2gg^\	.
!!LO:LB:g=original
=11	=11	=11	=11
2e\	2gg#X 2dd\	2gg#X\	.
2A\	2aa 2cc\	2aa\	<
=12	=12	=12	=12
*	*^	*	*
2f#X\	2aa#X 2ee\	2ryy	2aa#X\	.
4gn\	2bb/	4dd\	2bb\	.
4g#X\	.	4ffn\	.	[[
*	*v	*v	*	*
=13	=13	=13	=13
1a;<	1ccc 1aa 1ee;	1ccc;	.
!!LO:PB:g=original
=14||	=14||	=14||	=14||
2C/	2ccc 2ee\	2ccc\	<
2D/	2bb 2ff\	2bb\	[
=15	=15	=15	=15
2E\	2bb-X 2gg 2cc\	2bb-X\	<
2F\	2aa 2ff 2cc\	2aa\	[
=16	=16	=16	=16
2BB-X/	2aa-X 2dd\	2aa-X\	<
2E-X\	2gg 2ee-X\	2gg\	[
=17	=17	=17	=17
2E-X\	2gg-X 2b-X\	2gg-X\	<
2F\	2ff 2an\	2ff\	[
=18	=18	=18	=18
2G\	2een 2b-X\	2ee\	<
2An\	2ee-X 2cc\	2ee-X\	[
!!LO:LB:g=original
=19	=19	=19	=19
2B-X\	2dd 2b-X\	2dd\	<
2E-X\	2dd-X 2g/	2dd-X\	[[
=20	=20	=20	=20
2A-X\	2cc 2a-X/	2cc\	<
2AA-X/	2cc-X 2a- 2e-X/	2cc-X\	[[
=21	=21	=21	=21
2BB-X/	2b-X 2dn/	2b-X/	<
2C/	2an 2e-X/	2a/	[[
=22	=22	=22	=22
2D\	2a-X 2f/	2a-X/	<
2E-X\	2g 2e-X/	2g/	[[
=23	=23	=23	=23
2EE-X/	2g-X 2B-X/	2g-X/	<
2FF/	2f 2An/	2f/	[[
!!LO:LB:g=original
=24	=24	=24	=24
*^	*	*	*
2GGn/	2GGn\	2en 2B-X/	2e/	<
2AAn/	2AAn\	2e-X 2F</	2e-X/	[[
*v	*v	*	*	*
=25	=25	=25	=25
2BB-X\	2d 2F</	2d/	<
2BBn\	2d-X 2A-X< 2F</	2d-X/	[[
=26	=26	=26	=26
1C;<	1c 1G< 1E<;	1c;	>]
==	==	==	==
*-	*-	*-	*-
!!!system-decoration: s1{(s2,s3)}
!!!RDF**kern: > = above
!!!RDF**kern: < = below
!!!ENC: Marta Lawrence
!!!END: 2021-06-03
!!!ENC: Marcin Jachim
!!!END: 2021-05-17
!!!YEC: Copyright 2022 Narodowy Instytut Fryderyka Chopina (https://polishscores.org)
!!!YEM: Licence CC BY 4.0 (https://creativecommons.org/licenses/by/4.0)
